X:0
T:Margaret-Eric Epithalamium
G:song
S:Codex Upsaliensis C233
S:Proc Soc Antiq Scot LXXIII (1939) plate LXXXV
N:Composed for the marriage of Princess Margaret
N:of Scotland and King Eric of Norway, 31/8/1281
N:Warning!  ABC has a strange concept of 6- and 5-plets; BarFly 1.0
N:implements this in a way that displays them twice as long as they
N:are meant to be played.  As notated here, playback is correct and
N:display is wrong.
N:H means a fermata.  If your ABC implementation doesn't have that
N:feature just edit the H's out.
M:C
L:1/8
Q:1/4=108
K:GDor
GF|  G2      A2    cd  c2|BA G2 A2 B2| A2  G2 (3FGF GF|\
     G2      A2    cd  c2|BA G2 A2 B2| AG  F2  HG2   :|
d2|  c2      d2   (cB) A2|G2 A2 c2 A2| B2  G2 (3FGF A2|\
     c2      d2    c2  B2|A2 F2 GA B2| AG  F2  HG2   :|
F2|  G2      A2    B2  A2|G2 G2 A2 B2| c2  B2   A2  A2|\
     c2      d2    cB  A2|G2 F2 GA B2| AG  F2  HG2   :|
c2|  c2      de    f2  e2|d2 c2 d2 e2|(fe) d2 (3cBA A2|\
     c2      c2    d2  d2|G2 F2 GA B2| AG  F2  HG2   :|
g2|  e2      f2   (gf) e2|d2 e2 f2 e2| d2  d2   c2  c2|\
     d2      e2    f2  e2|d2 e2 c2 d2|(cB) A2  HG2   :|
c2|  c2      de    f2  ed|c2 e2 f2 d2| e2  dc   d2  c2|\
     c2      de    f2  ed|c2 e2 f2 d2| e2  dc  Hd2   :|
c2|  e2    (3def   ed  e2|c2 d2 dc d2| e2  c2   A2  c2|\
     e2    (3def   ed  e2|c2 d2 c2 d2|(cB) A2  HG2   :|
d2|(6defedc  c2    c2  cB|AG A2 c2 d2| GF  G2 (3ABA A2|\
     c2    (5defed c2  cB|AG F2 GA B2| AG  F2  HG2   :|
d2|  d2    (5defed c2  cB|AG A2 c2 d2| GF  G2 (3ABA A2|\
     c2    (5defed c2  cB|AG F2 GA B2| AG  F2  HG2   :|
GF|  G2      A2    cd  c2|BA G2 A2 B2| A2  G2 (3FGF GF|\
     G2      A2    cd  c2|BA G2 A2 B2| AG  F2  HG2   :|

All the examples so far are of gradual and subtle shifts, moving between
adjacent points in the mode diagram.  Shifts follow the lines marked in
the Big Picture (that is, there are no shifts between gapped scales with
the same number of gaps; the only moves that occur are the opening and
filling of gaps, or changes of one step at a time in seven-note modes).
This is quite unlike the usual procedure in art music, where changes of
mode tend to be dramatic and unmistakable, usually between major and minor.
There are some examples like that in folk music, but they usually feel like
conscious exercises in weirdness.  There is nothing subtle about this:

